app/dist/common/images/clps.svg

<svg height="18" width="18" xmlns="http://www.w3.org/2000/svg"><path d="m0 0h18v18h-18z" fill="#f0f3fa"/><path d="m5.86 7.94a3.8 3.8 0 0 0 -.99-.13c-1.17 0-1.89.59-1.89 1.27 0 .9.72 1.11 1.39 1.11.25 0 .95-.08 1.29-.29l-.14.89c-.6.2-1.15.21-1.47.21-1.25-0-2.05-.81-2.05-1.77 0-1.62 1.7-2.23 3.19-2.23h.81z" fill="#024b9a"/><path d="m8.88 11h-2.88l.52-4h1.06l-.42 3h1.84z" fill="#f1b210"/><path d="m10.51 8.6h.7c.45 0 .79-.09.79-.43 0-.2-.06-.36-.5-.36h-.77l-.38 3.19h-1.05l.53-4h1.76c.41 0 1.41.16 1.41 1.05 0 .9-.8 1.35-1.9 1.35h-.56zm5.49-.69c-.22-.07-.7-.1-.9-.1-.41 0-.75.04-.75.3 0 .42 1.5.67 1.5 1.7 0 .77-.75 1.19-1.72 1.19-.27 0-.68-.04-1.13-.22v-.85c.41.2.76.25 1.08.25.31 0 .72-.09.72-.44 0-.43-1.5-.9-1.5-1.64 0-.9.76-1.1 1.6-1.1h1.1z" fill="#024b9a"/></svg>

<!-- by TradingView --><svg xmlns="http://www.w3.org/2000/svg" width="18" height="18"><path fill="#F0F3FA" d="M0 0h18v18H0z"/><path d="M5.86 7.94a3.8 3.8 0 00-.99-.13c-1.17 0-1.89.59-1.89 1.27 0 .9.72 1.11 1.39 1.11.25 0 .95-.08 1.29-.29l-.14.89c-.6.2-1.15.21-1.47.21C2.8 11 2 10.19 2 9.23 2 7.61 3.7 7 5.19 7H6l-.14.94z" fill="#024B9A"/><path d="M8.88 11H6l.52-4h1.06l-.42 3H9l-.12 1z" fill="#F1B210"/><path d="M10.51 8.6h.7c.45 0 .79-.09.79-.43 0-.2-.06-.36-.5-.36h-.77L10.35 11H9.3l.53-4h1.76C12 7 13 7.16 13 8.05c0 .9-.8 1.35-1.9 1.35h-.56l-.03-.8zM16 7.91c-.22-.07-.7-.1-.9-.1-.41 0-.75.04-.75.3 0 .42 1.5.67 1.5 1.7 0 .77-.75 1.19-1.72 1.19-.27 0-.68-.04-1.13-.22v-.85c.41.2.76.25 1.08.25.31 0 .72-.09.72-.44 0-.43-1.5-.9-1.5-1.64 0-.9.76-1.1 1.6-1.1H16v.91z" fill="#024B9A"/></svg>
